X:83
T:On The Prowell
M:6/8
L:1/8
C:© Paul Gitlitz 1999
R:Jig
B:Giblitz Fancy
N:  Written for  Marlin Prowell's Birthday.
K:C
"C"(cB)A "Em"GEG|"F"AcB "C"c3|(cB)A "Em"GEG|"Am"AGE "G"D3|!
"C"(cB)A "Em"GEG|"F"AcB "C"c2G|ega "Em"gec|1"G7"fed "C"c2A:|2"G7"fed "C"c2d||!
|:"C"ega gec|egag3|ega gec|"F"fef "G"d3|!
"C"cgc acg|ega gab|(c'b)a "Em"gec|"G7"fed "C"c3:|]
